X:1
T:Title
%%score 1 { 2 | 3 }
L:1/8
Q:1/4=105
M:6/8
K:Eb
V:1 treble nm="Grand Piano, Soprano"
V:2 bass nm="Choir Pad, How Should We Spend Time"
V:3 bass 
V:1
 [EG] [EG]2 [EB] [DA]2 | [DF] E2- E2- E/ z/ | E [DF]2 [DF] [EG]2 | [FA] [EG]2- [EG]2- [EG]/ z/ | %4
w: By~William~James~Kirkpatrick * * *||||
 [EB] [EB]2 [EG][EG][DA] | [EB] [Ec]2 [Ad] [Ge]2 | [Gc] [FB]2 [DF] [Fd]2 | %7
w: |||
 [Ec] [DB]2- [DB]2- [DB]/ z/ | z [EB]2- [EB][EB][Ec] | [EB] [DA]2- [DA] [DA]2- | %10
w: |||
 [DA] [Fd]2- [Fd][Fd][Fc] | [FB] [GB]2- [GB]2- [GB]/ z/ | z [Ac]2- [Ac][Ac][Ad] | %13
w: |||
 [Ae] [Ge]2- [Ge] [EB]2 | [EG] [DB]2- [DB] [DA]2 | [DF] [EG]2- [EG]2- [EG]/ z/ | %16
w: |||
 z [EB]2- [EB][FB][FB] | [FB] [=Ec]2- [Ec] [Fc]2- | [Fc] [Fd]2- [Fd][Gd][Gd] | %19
w: |||
 [Gd] [Ge]2- [Ge]2- [Ge]/ z/ | z [Ae]2- [Ae][Ae][Ad] | [Ac] [GB]2- [GB] [EG]2- | %22
w: |||
 [EG] [FB]2- [FB][FB][Ac] | [Ad] [Ge]2- [Ge]3- | [Ge]3 z3 |] %25
w: |||
V:2
 B, B,2 G, F,2 | A, G,2- G,2- G,/ z/ | G, B,2 B, B,2 | B, B,2- B,2- B,/ z/ | G, G,2 B, B,2 | %5
 E E2 B, B,2 | E D2[K:bass] B, B,2 | =A, B,2- B,2- B,/ z/ | z G,2- G,G,A, | G, B,2- B, B,2- | %10
 B, B,2- B,B,[K:treble]C | D E2- E2- E/ z/ | z E2- EED | C[K:bass] B,2- B, G,2 | G, F,2- F, F,2 | %15
 B, B,2- B,2- B,/ z/ | z G,2- G,F,F, | F, G,2- G, =A,2- | A, B,2- B,/ z/ =B,B, | %19
 =B,[K:treble] C2- C2- C/ z/ | z C2- CCD | E E2- E B,2- | B, D2- DD[K:bass]C | B, B,2- B,3- | %24
 B,3 z3 |] %25
V:3
 E, E,2 E, B,,2 | B,, E,2- E,2- E,/ z/ | E, B,,2 B,, B,,2 | B,, E,2- E,2- E,/ z/ | E, E,2 E,E,F, | %5
 G, A,2 F, E,2 | E, F,2 F, F,2 | F, B,,2- B,,2- B,,/ z/ | z E,2- E,E,E, | E, F,2- F, F,2- | %10
 F, B,,2- B,,B,,B,, | B,, E,2- E,2- E,/ z/ | z A,2- A,A,A, | A, E,2- E, E,2 | E, B,,2- B,, B,,2 | %15
 B,, E,2- E,2- E,/ z/ | z E,2- E,D,D, | D, C,2- C, F,2- | F,3 z G,G, | .G,3 z3 | z A,2- A,A,A, | %21
 A, E,2- E, E,2- | E, B,,2- B,,B,,B,, | B,, E,2- E,3- | E,3 z3 |] %25

